X: 442
T: A Tune For Frankie
R: jig
M: 6/8
K: Gmixolydian
|:D2G FDC|~A,3 ~F3|~A,3 ~C3|~A,3 G,A,G,|G,>A,B,/C/|
D2G FDC|~A,3 ~F3|~A,3 CA,C|A,CA, G,A,G,|G,>A,B,/C/:|
|:DGA _Bdc|BGE FED|~F3 GFG|Add d3|
DGA _Bdc|BGE FED|FCA, DCA,|G,A,G, G,>A,B,/C/:|

